X: 200
T: Hora din campie
B: incoming
M:6/8
L:1/8
Q: 3/8=60
K:DPhr
V:1 
 [M:6/8]D2 G D3/2C/D       |[M:2/4]GG G/F/F       |\
 cB A/G/c                  |[M:6/8]F2EDD2         |
V:2 
 [M:6/8]A2 A B2 B          |[M:2/4]BB BA          |\
 =ee fe                    |[M:6/8]f2 e d d2      |
V:3 
 [M:6/8]F2 F G2 G          |[M:2/4]GG FF          |\
 cc cc                     |[M:6/8] c2 c A A2     |
W: Transcribed by Birgitt Karlson
W: http://www-linux.gsi.de/~karlson/index_e.htm
% abcbook-tune_id 63cb082f0fdafe96519e1658
% abcbook-tune_composer_id 
% abcbook-boost 0
% abcbook-difficulty 0
% abcbook-tags balkan dances
% abcbook-tablature 
% abcbook-transpose 
% abcbook-tuning 
% abcbook-lastupdated 1674250287866
% abcbook-soundfonts 
% abcbook-repeats 1


